img/subscribe/padatak-order-cards.svg

<svg width="72" height="77" viewBox="0 0 72 77" fill="none" xmlns="http://www.w3.org/2000/svg">
<path d="M3.24226 42.0604C2.1134 40.9278 2.1134 39.0849 3.24226 37.9529L30.7898 10.3133C31.2289 9.87273 31.2289 9.15837 30.7898 8.71836C30.3507 8.27718 29.6387 8.27777 29.2001 8.71836L1.65202 36.3579C-0.352757 38.3694 -0.352757 41.6433 1.65202 43.6554L8.59087 50.6168C8.80984 50.8366 9.09791 50.947 9.3854 50.947C9.67347 50.947 9.96095 50.8371 10.1805 50.6168C10.6196 50.1762 10.6196 49.4619 10.1805 49.0219L3.24226 42.0604Z" fill="#D1D2D4"/>
<path d="M25.3407 22.4628L8.32935 39.531C7.89022 39.9716 7.89022 40.6859 8.32935 41.1265C8.54891 41.3462 8.8364 41.4567 9.12447 41.4567C9.41195 41.4567 9.69943 41.3468 9.919 41.1265L26.9303 24.0584C27.3695 23.6178 27.3695 22.9034 26.9303 22.4628C26.4918 22.0228 25.7798 22.0228 25.3407 22.4628Z" fill="#D1D2D4"/>
<path d="M35.6281 20.6594C36.7933 20.6594 37.9584 20.2147 38.8455 19.3247L42.2484 15.9104C44.0225 14.1304 44.0225 11.2342 42.2484 9.45415C40.4743 7.67414 37.5878 7.67414 35.8137 9.45415L32.4107 12.8685C31.5512 13.7309 31.0781 14.877 31.0781 16.0966C31.0781 17.3156 31.5512 18.4623 32.4107 19.3247C33.2978 20.2147 34.4629 20.6594 35.6281 20.6594ZM34.0004 14.4635L37.4034 11.0491C38.3009 10.1485 39.7612 10.1485 40.6582 11.0491C41.5558 11.9497 41.5558 13.4148 40.6582 14.3148L37.2552 17.7292C36.3582 18.6297 34.898 18.6297 34.0004 17.7292C33.5659 17.2933 33.3265 16.7134 33.3265 16.0966C33.3265 15.4798 33.5659 14.8993 34.0004 14.4635Z" fill="#D1D2D4"/>
<path d="M66.5787 37.6805H55.7573L64.095 29.315C66.1003 27.3029 66.1003 24.029 64.095 22.017L43.6572 1.51154C42.6859 0.536941 41.3943 0 40.0207 0C38.6471 0 37.3554 0.536941 36.3835 1.51154L32.3786 5.52979C31.9401 5.97039 31.9401 6.68416 32.3786 7.12476C32.8177 7.56535 33.5297 7.56535 33.9683 7.12476L37.9737 3.10651C38.52 2.55782 39.2472 2.25586 40.0207 2.25586C40.7935 2.25586 41.5207 2.55782 42.0676 3.10651L62.5047 23.6119C63.6336 24.7445 63.6336 26.5868 62.5047 27.7195L52.5774 37.6799H24.1681L32.3394 29.4813C32.7785 29.0413 32.7785 28.3269 32.3394 27.8863C31.9003 27.4457 31.1883 27.4457 30.7497 27.8863L20.9887 37.6805H17.4634C14.6272 37.6805 12.3203 39.9951 12.3203 42.8402V71.8397C12.3203 74.6848 14.6272 77 17.4634 77H66.5787C69.4149 77 71.7218 74.6848 71.7218 71.8397V67.6711C71.7218 67.0478 71.2188 66.5432 70.5976 66.5432C69.977 66.5432 69.4734 67.0478 69.4734 67.6711V71.8397C69.4734 73.4411 68.1754 74.7441 66.5787 74.7441H17.4634C15.8673 74.7441 14.5687 73.4411 14.5687 71.8397V56.0129H69.4734V63.1594C69.4734 63.7821 69.9764 64.2873 70.5976 64.2873C71.2188 64.2873 71.7218 63.7821 71.7218 63.1594V42.8408C71.7218 39.9951 69.4149 37.6805 66.5787 37.6805ZM17.4634 39.9363H66.5787C68.1748 39.9363 69.4734 41.2393 69.4734 42.8408V46.7909H14.5687V42.8408C14.5687 41.2393 15.8673 39.9363 17.4634 39.9363ZM14.5687 53.757V49.0467H69.4734V53.757H14.5687Z" fill="#D1D2D4"/>
<path d="M57.1456 64.2876C56.1953 64.2876 55.4219 65.0636 55.4219 66.0171V70.3138C55.4219 71.2678 56.1953 72.0433 57.1456 72.0433H63.9574C64.9077 72.0433 65.6811 71.2678 65.6811 70.3138V66.0171C65.6811 65.0636 64.9077 64.2876 63.9574 64.2876H57.1456ZM63.4328 69.7874H57.6702V66.5435H63.4328V69.7874Z" fill="#D1D2D4"/>
<path d="M36.6144 64.2876C35.6641 64.2876 34.8906 65.0636 34.8906 66.0171V70.3138C34.8906 71.2678 35.6641 72.0433 36.6144 72.0433H51.0219C51.9722 72.0433 52.7457 71.2678 52.7457 70.3138V66.0171C52.7457 65.0636 51.9722 64.2876 51.0219 64.2876H36.6144ZM50.4973 69.7874H37.139V66.5435H50.4973V69.7874Z" fill="#D1D2D4"/>
<path d="M22.9601 69.7871C22.3395 69.7871 21.8359 70.2923 21.8359 70.915C21.8359 71.5383 22.3395 72.043 22.9601 72.043H30.1384C30.7591 72.043 31.2626 71.5383 31.2626 70.915C31.2626 70.2923 30.7591 69.7871 30.1384 69.7871H22.9601Z" fill="#D1D2D4"/>
</svg>

<svg width="72" height="77" fill="none" xmlns="http://www.w3.org/2000/svg"><path d="M3.242 42.06a2.914 2.914 0 010-4.107l27.548-27.64a1.13 1.13 0 000-1.595 1.12 1.12 0 00-1.59 0L1.652 36.358a5.179 5.179 0 000 7.297l6.939 6.962a1.119 1.119 0 001.59 0 1.13 1.13 0 000-1.595L3.242 42.06z" fill="#D1D2D4"/><path d="M25.34 22.463L8.33 39.53a1.13 1.13 0 000 1.596 1.12 1.12 0 001.589 0L26.93 24.058a1.13 1.13 0 000-1.595 1.122 1.122 0 00-1.59 0zm10.288-1.803c1.165 0 2.33-.445 3.218-1.335l3.402-3.415a4.581 4.581 0 000-6.456 4.544 4.544 0 00-6.434 0l-3.403 3.414a4.542 4.542 0 00-1.333 3.229c0 1.219.473 2.365 1.333 3.228a4.528 4.528 0 003.217 1.334zM34 14.462l3.403-3.414a2.3 2.3 0 013.255 0c.898.9.898 2.366 0 3.266l-3.403 3.414a2.3 2.3 0 01-3.255 0 2.298 2.298 0 01-.673-1.632c0-.617.239-1.198.673-1.634z" fill="#D1D2D4"/><path d="M66.579 37.68H55.757l8.338-8.365a5.179 5.179 0 000-7.298L43.657 1.512A5.1 5.1 0 0040.021 0a5.103 5.103 0 00-3.638 1.512L32.38 5.53a1.131 1.131 0 000 1.595c.439.44 1.15.44 1.59 0l4.005-4.018a2.87 2.87 0 012.047-.851c.773 0 1.5.302 2.047.85l20.437 20.506a2.914 2.914 0 010 4.108l-9.928 9.96h-28.41l8.171-8.199a1.13 1.13 0 000-1.595 1.121 1.121 0 00-1.59 0l-9.76 9.795h-3.526c-2.836 0-5.143 2.314-5.143 5.16V71.84c0 2.845 2.307 5.16 5.143 5.16H66.58c2.836 0 5.143-2.315 5.143-5.16v-4.17c0-.623-.503-1.128-1.124-1.128-.621 0-1.125.505-1.125 1.128v4.169a2.903 2.903 0 01-2.894 2.904H17.463a2.903 2.903 0 01-2.894-2.904V56.013h54.904v7.146c0 .623.503 1.128 1.125 1.128.62 0 1.124-.505 1.124-1.128V42.841c0-2.846-2.307-5.16-5.143-5.16zm-49.116 2.256H66.58a2.903 2.903 0 012.894 2.905v3.95H14.57v-3.95a2.903 2.903 0 012.894-2.905zM14.57 53.757v-4.71h54.904v4.71H14.57z" fill="#D1D2D4"/><path d="M57.146 64.288a1.73 1.73 0 00-1.724 1.73v4.296c0 .954.773 1.73 1.724 1.73h6.811a1.73 1.73 0 001.724-1.73v-4.297a1.73 1.73 0 00-1.724-1.73h-6.811zm6.287 5.5H57.67v-3.245h5.763v3.244zm-26.819-5.5c-.95 0-1.723.776-1.723 1.73v4.296c0 .954.773 1.73 1.723 1.73h14.408a1.73 1.73 0 001.724-1.73v-4.297a1.73 1.73 0 00-1.724-1.73H36.614zm13.883 5.5H37.14v-3.245h13.358v3.244zm-27.537-.001c-.62 0-1.124.505-1.124 1.128 0 .623.504 1.128 1.124 1.128h7.178c.621 0 1.125-.505 1.125-1.128 0-.623-.504-1.128-1.125-1.128H22.96z" fill="#D1D2D4"/></svg>
